images/ic-stabilize.svg

<svg height="20" viewBox="0 0 18 20" width="18" xmlns="http://www.w3.org/2000/svg"><path d="m17.5 4c-2.61.7-5.67 1-8.5 1s-5.89-.3-8.5-1l-.5 2c1.86.5 4 .83 6 1v13h2v-6h2v6h2v-13c2-.17 4.14-.5 6-1zm-8.5 0c1.1 0 2-.9 2-2s-.9-2-2-2-2 .9-2 2 .9 2 2 2z" fill="#3e4241"/></svg>

<?xml version="1.0" encoding="UTF-8"?>
<svg width="18px" height="20px" viewBox="0 0 18 20" version="1.1" xmlns="http://www.w3.org/2000/svg" xmlns:xlink="http://www.w3.org/1999/xlink">
    <!-- Generator: Sketch 54.1 (76490) - https://sketchapp.com -->
    <title>ic-stabilize</title>
    <desc>Created with Sketch.</desc>
    <g id="Page-1" stroke="none" stroke-width="1" fill="none" fill-rule="evenodd">
        <g id="ic-stabilize" transform="translate(-0.000000, 0.000000)" fill="#3E4241" fill-rule="nonzero">
            <path d="M17.5,4 C14.89,4.7 11.83,5 9,5 C6.17,5 3.11,4.7 0.5,4 L0,6 C1.86,6.5 4,6.83 6,7 L6,20 L8,20 L8,14 L10,14 L10,20 L12,20 L12,7 C14,6.83 16.14,6.5 18,6 L17.5,4 Z M9,4 C10.1,4 11,3.1 11,2 C11,0.9 10.1,0 9,0 C7.9,0 7,0.9 7,2 C7,3.1 7.9,4 9,4 Z" id="Shape"></path>
        </g>
    </g>
</svg>
